build/img/calc-modal-img.svg

<svg width="265" height="256" viewBox="0 0 265 256" fill="none" xmlns="http://www.w3.org/2000/svg">
<path d="M163.166 189.029L187.049 161.028H170.578L154.931 154.852L163.166 189.029Z" fill="#A19B9B"/>
<path d="M155.655 148.35L175.086 51.1516C176.869 42.2313 185.546 36.4456 194.466 38.2289C203.386 40.0121 209.172 48.689 207.389 57.6093L187.958 154.807C186.875 160.223 181.607 163.736 176.192 162.653L163.5 160.116C158.085 159.033 154.572 153.765 155.655 148.35Z" fill="#A19B9B"/>
<path d="M173.049 54.3777C175.931 59.1139 189.932 67.5546 207.638 61.482" stroke="white" stroke-width="4" stroke-linecap="round" stroke-linejoin="round"/>
<path d="M171.402 62.6133C174.422 67.2657 189.089 75.557 207.638 69.5919" stroke="white" stroke-width="4" stroke-linecap="round" stroke-linejoin="round"/>
<path d="M154.107 152.769C157.127 157.421 171.794 165.712 190.343 159.747" stroke="white" stroke-width="4" stroke-linecap="round" stroke-linejoin="round"/>
<path d="M158.509 175.828C158.509 175.828 166.46 181.593 173.872 179.534" stroke="white" stroke-width="4" stroke-linecap="round" stroke-linejoin="round"/>
<path d="M107 205H238.75C252.143 205 263 215.857 263 229.25V229.25C263 242.643 252.143 253.5 238.75 253.5H33" stroke="#A19B9B" stroke-width="4" stroke-linecap="round" stroke-linejoin="round"/>
<path d="M37.9992 63.6655C36.9992 60.1655 33.9992 17.1655 53.4992 8.16553" stroke="#A19B9B" stroke-width="2" stroke-linecap="round"/>
<path d="M39.6348 64C37.7369 60.8938 22.6858 20.8779 39.0765 6.99999" stroke="#A19B9B" stroke-width="2" stroke-linecap="round"/>
<path d="M36.1347 64C33.431 61.5628 11.1756 26.0425 22.9365 8.07224" stroke="#A19B9B" stroke-width="2" stroke-linecap="round"/>
<path d="M16.0676 64.4083C18.524 65.0389 21.8877 65.6739 26.0732 65.9337C34.7962 66.4751 47.0409 65.3837 62.029 59.2854C60.7782 66.9225 60.0174 74.9876 60.5016 82.2088C61.0577 90.5034 63.2915 98.2007 68.9049 102.577L69.4471 103H70.1346C77.1922 103 83.5624 106.406 88.6703 112.025C93.7871 117.653 97.5508 125.424 99.3014 133.845C102.813 150.735 98.1533 169.549 81.182 178.741C62.5023 188.86 44.7865 188.827 31.1849 184.451C24.3702 182.259 18.5994 178.979 14.2634 175.35C9.89995 171.697 7.10713 167.792 6.04266 164.401C2.53085 153.214 1.12354 142.946 2.80486 133.921C4.47156 124.973 9.19997 117.091 18.2929 110.63C22.7828 107.44 24.5033 102.382 24.7634 97.041C25.0229 91.7106 23.8548 85.8003 22.2524 80.3827C20.6427 74.9404 18.5541 69.8625 16.8751 66.156C16.5934 65.5341 16.3229 64.95 16.0676 64.4083Z" stroke="#A19B9B" stroke-width="4" stroke-linecap="round"/>
<circle cx="32.2706" cy="129.271" r="2.5" transform="rotate(-22.6791 32.2706 129.271)" fill="#A19B9B"/>
<circle cx="66.0039" cy="123.004" r="2.5" transform="rotate(13.1776 66.0039 123.004)" fill="#A19B9B"/>
<path d="M38.9563 161.159C49.4707 169.542 66.4756 164.375 68.135 151" stroke="#A19B9B" stroke-width="2" stroke-linecap="round" stroke-linejoin="round"/>
<path d="M13.1348 61C22.8014 56.3334 44.0348 48.9 63.6348 56.5" stroke="#A19B9B" stroke-width="2" stroke-linecap="round"/>
<path d="M39.3444 128.049C39.8 129.139 39.8698 129.928 39.7521 130.519C39.6367 131.1 39.317 131.612 38.7564 132.112C38.1821 132.625 37.388 133.094 36.3919 133.572C35.5705 133.966 34.6622 134.344 33.6794 134.752C33.4709 134.839 33.259 134.927 33.0439 135.017C32.8288 135.107 32.6173 135.196 32.4091 135.283C31.428 135.695 30.5212 136.077 29.6635 136.384C28.6233 136.757 27.7313 136.992 26.963 137.04C26.2132 137.088 25.6241 136.955 25.1301 136.629C24.6264 136.297 24.1145 135.694 23.6588 134.604C21.8488 130.272 23.8928 125.293 28.2243 123.483C32.5557 121.673 37.5343 123.717 39.3444 128.049Z" stroke="#A19B9B" stroke-width="2"/>
<path d="M72.4056 123.866C72.6272 125.027 72.5333 125.813 72.2965 126.367C72.0642 126.912 71.646 127.347 70.9945 127.721C70.3269 128.105 69.4533 128.401 68.3801 128.664C67.4952 128.881 66.5287 129.063 65.4829 129.261C65.261 129.303 65.0356 129.345 64.8066 129.389C64.5776 129.433 64.3523 129.476 64.1306 129.519C63.0856 129.721 62.1198 129.907 61.2172 130.031C60.1226 130.182 59.2014 130.229 58.4395 130.118C57.696 130.01 57.1467 129.76 56.7303 129.339C56.3057 128.911 55.9288 128.215 55.7072 127.054C54.8268 122.443 57.8512 117.991 62.4623 117.111C67.0735 116.23 71.5252 119.255 72.4056 123.866Z" stroke="#A19B9B" stroke-width="2"/>
<circle cx="58.6348" cy="8.5" r="4.5" fill="#A19B9B" stroke="#A19B9B" stroke-width="2"/>
<circle cx="43.6348" cy="8.5" r="4.5" fill="#A19B9B" stroke="#A19B9B" stroke-width="2"/>
<circle cx="27.6348" cy="5.5" r="4.5" fill="#A19B9B" stroke="#A19B9B" stroke-width="2"/>
</svg>

<svg width="265" height="256" fill="none" xmlns="http://www.w3.org/2000/svg"><path d="M163.166 189.029l23.883-28.001h-16.471l-15.647-6.176 8.235 34.177z" fill="#A19B9B"/><path d="M155.655 148.35l19.431-97.198c1.783-8.92 10.46-14.706 19.38-12.923 8.92 1.783 14.706 10.46 12.923 19.38l-19.431 97.198c-1.083 5.416-6.351 8.929-11.766 7.846l-12.692-2.537c-5.415-1.083-8.928-6.351-7.845-11.766z" fill="#A19B9B"/><path d="M173.049 54.378c2.882 4.736 16.883 13.177 34.589 7.104M171.402 62.613c3.02 4.653 17.687 12.944 36.236 6.979M154.107 152.769c3.02 4.652 17.687 12.943 36.236 6.978M158.509 175.828s7.951 5.765 15.363 3.706" stroke="#fff" stroke-width="4" stroke-linecap="round" stroke-linejoin="round"/><path d="M107 205h131.75c13.393 0 24.25 10.857 24.25 24.25v0c0 13.393-10.857 24.25-24.25 24.25H33" stroke="#A19B9B" stroke-width="4" stroke-linecap="round" stroke-linejoin="round"/><path d="M38 63.666c-1-3.5-4-46.5 15.5-55.5M39.635 64c-1.898-3.106-16.95-43.122-.558-57M36.135 64c-2.704-2.437-24.96-37.957-13.198-55.928" stroke="#A19B9B" stroke-width="2" stroke-linecap="round"/><path d="M16.068 64.408c2.456.63 5.82 1.266 10.005 1.526 8.723.541 20.968-.55 35.956-6.649-1.25 7.638-2.012 15.703-1.527 22.924.556 8.294 2.79 15.992 8.403 20.368l.542.423h.688c7.057 0 13.427 3.406 18.535 9.025 5.117 5.628 8.88 13.399 10.631 21.82 3.512 16.89-1.148 35.704-18.119 44.896-18.68 10.119-36.396 10.086-49.997 5.71-6.815-2.192-12.586-5.472-16.922-9.101-4.363-3.653-7.156-7.558-8.22-10.949-3.512-11.187-4.92-21.455-3.238-30.48 1.667-8.948 6.395-16.83 15.488-23.291 4.49-3.19 6.21-8.248 6.47-13.589.26-5.33-.908-11.24-2.51-16.658-1.61-5.443-3.699-10.52-5.378-14.227-.282-.622-.552-1.206-.807-1.748z" stroke="#A19B9B" stroke-width="4" stroke-linecap="round"/><circle cx="32.271" cy="129.271" r="2.5" transform="rotate(-22.68 32.27 129.271)" fill="#A19B9B"/><circle cx="66.004" cy="123.004" r="2.5" transform="rotate(13.178 66.004 123.004)" fill="#A19B9B"/><path d="M38.956 161.159c10.515 8.383 27.52 3.216 29.179-10.159" stroke="#A19B9B" stroke-width="2" stroke-linecap="round" stroke-linejoin="round"/><path d="M13.135 61c9.666-4.667 30.9-12.1 50.5-4.5" stroke="#A19B9B" stroke-width="2" stroke-linecap="round"/><path d="M39.344 128.049c.456 1.09.526 1.879.408 2.47-.115.581-.435 1.093-.996 1.593-.574.513-1.368.982-2.364 1.46-.822.394-1.73.772-2.713 1.18l-.635.265-.635.266c-.981.412-1.888.794-2.745 1.101-1.04.373-1.933.608-2.701.656-.75.048-1.339-.085-1.833-.411-.504-.332-1.015-.935-1.471-2.025a8.5 8.5 0 0 1 15.685-6.555zM72.406 123.866c.221 1.161.127 1.947-.11 2.501-.232.545-.65.98-1.302 1.354-.667.384-1.54.68-2.614.943-.885.217-1.851.399-2.897.597l-.676.128-.676.13c-1.045.202-2.011.388-2.914.512-1.094.151-2.016.198-2.777.087-.744-.108-1.293-.358-1.71-.779-.424-.428-.801-1.124-1.023-2.285a8.5 8.5 0 0 1 6.755-9.943 8.5 8.5 0 0 1 9.944 6.755z" stroke="#A19B9B" stroke-width="2"/><circle cx="58.635" cy="8.5" r="4.5" fill="#A19B9B" stroke="#A19B9B" stroke-width="2"/><circle cx="43.635" cy="8.5" r="4.5" fill="#A19B9B" stroke="#A19B9B" stroke-width="2"/><circle cx="27.635" cy="5.5" r="4.5" fill="#A19B9B" stroke="#A19B9B" stroke-width="2"/></svg>
